launcher/android/assets/skins/day/svg/virtual.svg

<svg enable-background="new 0 0 220.00 220.00" height="220" viewBox="0 0 220 220" width="220" xmlns="http://www.w3.org/2000/svg" xmlns:xlink="http://www.w3.org/1999/xlink"><filter id="a" filterUnits="userSpaceOnUse"><feGaussianBlur stdDeviation="1.88976"/></filter><g stroke-linejoin="bevel"><g stroke-width="5"><path d="m187.415 70.4821-.667 18.3333-4 11.6666-5.333 10-5 8-6.667 7-5 3-4.666 1-2.667-6.333v-8.667l.333-7 3.334-7.333 8-6.0001 8-6.3333 8-7.3333z" fill="#fff" stroke="#000"/><path d="m27.0818 72.4821 11.6666 13 2.6666 1.6668 7.6667 8 6 4.3334 6.3333 2.9997 4.3334 6.667 3.3333 9.333 1.6667 9 .6666 7.334-3 2.666-6-3.333-8.3333-8.333-9.6667-10.334-5.6666-9-5-8.9997-3-10.3334-1.6667-8z" fill="#fff" stroke="#000"/><path d="m60.0818 100.149-1.3334-18.6669v-13.9998l2-12.6667 6.6666-11 5.6667-7 8.3333-6.6667 9.6667-5.6666 10.6663-1.6667 18.667 1 11.333 3 9.667 4.3333 8.667 5.6667 6.333 6 5 9.6667 2.667 10 2 9.3333-2.334 12-4.333 9.6667-4.333 7.9997-.667 9 .667 10.667 1.666 7.667 5 8.666 7 7 5.334 5.334 8.333 4.333 6.667 4 1.333 3.333-2.333 4-5.667 7.334-6.667 6.666-8 5-6.333 3.334-7.667 2-9 2.333h-11.666-11l-7.334-2-6.333-3-6-4.667-5-3.333-4.6666 4-5.3334 4.333-4 3.334-6.3333 1.333-11.6667 1.333-8.3333-.666-7-5.334 1.3333-3.333 6.6667-4.333 6.3333-6 5-8.334 1.3334-11 .6666-9-.3333-12-1.6667-8.333-3-8.333-2.6666-6.667z" fill="#fff" stroke="#000"/><path d="m81.7484 100.482 9.6668 8.333 6.3332 1.001 7.9996.666 10-1.333 7.667-1.333 6.333-3 5.667-3.667-1 3-6 8.333-7 11-6 8-6 7.334-2.667 1.666-6.333-6.666-4.6666-8-5.3334-8.334-4.6666-8.333-3.6667-6.333z" fill="#f00" stroke="#000"/><path d="m85.0818 50.8154 8.6666 8.3334 5.3333 4.0001 2.3333 6.6667.333 22-11.6663-1-.3333-17.3333.3333-11.6667z" stroke="#2d2d2d"/><path d="m130.469 51.8042-8.666 8.3334-5.333 4.0001-2.334 6.6666-.333 22 11.667-1 .333-17.3332-.333-11.6668z" stroke="#2d2d2d"/></g><path d="m95.0818 28.8154 22.0002 4.3334 12 5.3335 9.666 7.3333 8 10 1.334 13-.334 17.6667-2.666 16.9997s-.667 13-1 14.667c-.334 1.667-1 8.667-1 8.667l3.333 9.333 4 8 7.667 7.333 9 6 8.333 4 7.333 1.667 3.521-4.771-11.75-6.5-7.625-6.875-7.625-8.375-5.854-13.479.667-15.667 2.333-9.9997 5.729-16.6042 1.604-13.3958-7.104-21.1042-7.896-8.2292-14.854-9.0208-17.479-3.9792-13.333-.3333z" fill="#858383" filter="url(#a)" stroke-width=".2"/><path d="m60.2172 180.514-4.625 3.312-3.6875 2.625 5.0937 4.115 4.5 1.166 6.8333.167 5.6667-.167 7.7188-2.281 4.2812-3.385 2.7188-2.552-6.3855.885-6.5 2.167-6.3333-.667-4.8334-3-2.8228-3.448z" fill="#858383" filter="url(#a)" stroke-width=".2"/><path d="m102.748 180.545 8.469 5.781 7.938 2.813 5.562.875 18.615.885 7.166-1.667 9.834-3.833-3.834-1.667-5.666 1-8 2.334-8.834-.167-13.666-3.333-7.667-2.5z" fill="#858383" filter="url(#a)" stroke-width=".2"/></g></svg>

﻿<?xml version="1.0" encoding="utf-8"?>
<!DOCTYPE svg PUBLIC "-//W3C//DTD SVG 1.1//EN" "http://www.w3.org/Graphics/SVG/1.1/DTD/svg11.dtd">
<svg xmlns="http://www.w3.org/2000/svg" xmlns:xlink="http://www.w3.org/1999/xlink" version="1.1" baseProfile="full" width="220" height="220" viewBox="0 0 220.00 220.00" enable-background="new 0 0 220.00 220.00" xml:space="preserve">
	<path fill="#FFFFFF" fill-opacity="1" stroke-width="5" stroke-linejoin="bevel" stroke="#000000" stroke-opacity="1" d="M 187.415,70.4821L 186.748,88.8154L 182.748,100.482L 177.415,110.482L 172.415,118.482L 165.748,125.482L 160.748,128.482L 156.082,129.482L 153.415,123.149L 153.415,114.482L 153.748,107.482L 157.082,100.149L 165.082,94.1489L 173.082,87.8156L 181.082,80.4823L 187.415,70.4821 Z "/>
	<path fill="#FFFFFF" fill-opacity="1" stroke-width="5" stroke-linejoin="bevel" stroke="#000000" stroke-opacity="1" d="M 27.0818,72.4821L 38.7484,85.4821L 41.415,87.1489L 49.0817,95.1489L 55.0817,99.4823L 61.415,102.482L 65.7484,109.149L 69.0817,118.482L 70.7484,127.482L 71.415,134.816L 68.415,137.482L 62.415,134.149L 54.0817,125.816L 44.415,115.482L 38.7484,106.482L 33.7484,97.4823L 30.7484,87.1489L 29.0817,79.1489L 27.0818,72.4821 Z "/>
	<path fill="#FFFFFF" fill-opacity="1" stroke-width="5" stroke-linejoin="bevel" stroke="#000000" stroke-opacity="1" d="M 60.0818,100.149L 58.7484,81.4821L 58.7484,67.4823L 60.7484,54.8156L 67.415,43.8156L 73.0817,36.8156L 81.415,30.1489L 91.0817,24.4823L 101.748,22.8156L 120.415,23.8156L 131.748,26.8156L 141.415,31.1489L 150.082,36.8156L 156.415,42.8156L 161.415,52.4823L 164.082,62.4823L 166.082,71.8156L 163.748,83.8156L 159.415,93.4823L 155.082,101.482L 154.415,110.482L 155.082,121.149L 156.748,128.816L 161.748,137.482L 168.748,144.482L 174.082,149.816L 182.415,154.149L 189.082,158.149L 190.415,161.482L 188.082,165.482L 182.415,172.816L 175.748,179.482L 167.748,184.482L 161.415,187.816L 153.748,189.816L 144.748,192.149L 133.082,192.149L 122.082,192.149L 114.748,190.149L 108.415,187.149L 102.415,182.482L 97.415,179.149L 92.7484,183.149L 87.415,187.482L 83.415,190.816L 77.0817,192.149L 65.415,193.482L 57.0817,192.816L 50.0817,187.482L 51.415,184.149L 58.0817,179.816L 64.415,173.816L 69.415,165.482L 70.7484,154.482L 71.415,145.482L 71.0817,133.482L 69.415,125.149L 66.415,116.816L 63.7484,110.149L 60.0818,100.149 Z "/>
	<path fill="#FF0000" fill-opacity="1" stroke-width="5" stroke-linejoin="bevel" stroke="#000000" stroke-opacity="1" d="M 81.7484,100.482L 91.4152,108.815L 97.7484,109.816L 105.748,110.482L 115.748,109.149L 123.415,107.816L 129.748,104.816L 135.415,101.149L 134.415,104.149L 128.415,112.482L 121.415,123.482L 115.415,131.482L 109.415,138.816L 106.748,140.482L 100.415,133.816L 95.7484,125.816L 90.415,117.482L 85.7484,109.149L 82.0817,102.816L 81.7484,100.482 Z "/>
	<path fill="#000000" fill-opacity="1" stroke-width="5" stroke-linejoin="bevel" stroke="#2D2D2D" stroke-opacity="1" d="M 85.0818,50.8154L 93.7484,59.1488L 99.0817,63.1489L 101.415,69.8156L 101.748,91.8156L 90.0817,90.8156L 89.7484,73.4823L 90.0817,61.8156L 85.0818,50.8154 Z "/>
	<path fill="#000000" fill-opacity="1" stroke-width="5" stroke-linejoin="bevel" stroke="#2D2D2D" stroke-opacity="1" d="M 130.469,51.8042L 121.803,60.1376L 116.47,64.1377L 114.136,70.8043L 113.803,92.8043L 125.47,91.8043L 125.803,74.4711L 125.47,62.8043L 130.469,51.8042 Z "/>
	<filter id="Filter_GaussianBlur1_" filterUnits="userSpaceOnUse">
		<feGaussianBlur stdDeviation="1.88976"/>
	</filter>
	<path fill="#858383" fill-opacity="1" stroke-width="0.2" stroke-linejoin="bevel" filter="url(#Filter_GaussianBlur1_)" d="M 95.0818,28.8154L 117.082,33.1488L 129.082,38.4823L 138.748,45.8156L 146.748,55.8156L 148.082,68.8156L 147.748,86.4823L 145.082,103.482C 145.082,103.482 144.415,116.482 144.082,118.149C 143.748,119.816 143.082,126.816 143.082,126.816L 146.415,136.149L 150.415,144.149L 158.082,151.482L 167.082,157.482L 175.415,161.482L 182.748,163.149L 186.269,158.378L 174.519,151.878L 166.894,145.003L 159.269,136.628L 153.415,123.149L 154.082,107.482L 156.415,97.4823L 162.144,80.8781L 163.748,67.4823L 156.644,46.3781L 148.748,38.1489L 133.894,29.1281L 116.415,25.1489L 103.082,24.8156L 95.0818,28.8154 Z "/>
	<filter id="Filter_GaussianBlur2_" filterUnits="userSpaceOnUse">
		<feGaussianBlur stdDeviation="1.88976"/>
	</filter>
	<path fill="#858383" fill-opacity="1" stroke-width="0.2" stroke-linejoin="bevel" filter="url(#Filter_GaussianBlur2_)" d="M 60.2172,180.514L 55.5922,183.826L 51.9047,186.451L 56.9984,190.566L 61.4984,191.732L 68.3317,191.899L 73.9984,191.732L 81.7172,189.451L 85.9984,186.066L 88.7172,183.514L 82.3317,184.399L 75.8317,186.566L 69.4984,185.899L 64.665,182.899L 61.8422,179.451L 60.2172,180.514 Z "/>
	<filter id="Filter_GaussianBlur3_" filterUnits="userSpaceOnUse">
		<feGaussianBlur stdDeviation="1.88976"/>
	</filter>
	<path fill="#858383" fill-opacity="1" stroke-width="0.2" stroke-linejoin="bevel" filter="url(#Filter_GaussianBlur3_)" d="M 102.748,180.545L 111.217,186.326L 119.155,189.139L 124.717,190.014L 143.332,190.899L 150.498,189.232L 160.332,185.399L 156.498,183.732L 150.832,184.732L 142.832,187.066L 133.998,186.899L 120.332,183.566L 112.665,181.066L 102.748,180.545 Z "/>
</svg>
